X:1
T:[ID 1-58b]
T:[ID 1-58b]
T:Bezeichnung standardisiert: Menuett Men.
T:Urheber unbekannt Datum in der hier transkribierten schriftlichen Quelle: vermutlich vor 1767
C:Urheber unbekannt
C:Datum in der hier transkribierten schriftlichen Quelle: vermutlich vor 1767
L:1/8
M:3/4
K:G
V:1 treble 
V:1
 (3def | g2 d2 cd | B6 | d2 BGAF | G4 A2 | B2 d^c d2 | A2 d^c d2 | egfed^c | d4 :: d2 de=fg | %10
 edcB c2 | e^c A2 g2 | fed^c d2 | defdef | g2 fedc | B2 AGAF | G4 :| %17

